src/assets/buttons/medium.svg

<svg height="55" viewBox="0 0 55 55" width="55" xmlns="http://www.w3.org/2000/svg"><g fill="none"><rect fill="#141414" height="55" rx="2" width="55"/><g fill="#fff" transform="translate(13 15)"><g fill-opacity=".7"><path d="m19.337.027c-.14-.07-.254 0-.254.157v19.267l8.406 4.218c.418.21.761-.003.761-.472v-18.547c.0004551-.0924982-.0514332-.1773006-.134-.219l-8.779-4.405"/><path d="m9.917 14.647 9.06-14.503c.0878393-.1335189.2607236-.1817557.405-.113l8.753 4.31c.0518435.0250656.0906021.0709701.1066233.1262815.0160213.0553115.0077975.1148246-.0226233.1637185l-9.092 14.552z"/><path d="m1.345.125c-.572-.28-.766-.073-.43.461l8.78 13.993 9.388 4.604-9.328-14.867c-.0398554-.0636114-.0966453-.1148608-.164-.148z"/></g><path d="m9.917 23.194c0 .472-.343.686-.762.475l-7.897-3.98c-.28-.141-.508-.514-.508-.829v-18.49c0-.314.228-.456.508-.316l8.546 4.307c.069.035.113.107.113.185z"/></g></g></svg>

<svg xmlns="http://www.w3.org/2000/svg" width="55" height="55" viewBox="0 0 55 55">
  <g fill="none">
    <rect width="55" height="55" fill="#141414" rx="2"/>
    <g fill="#FFF" transform="translate(13 15)">
      <path fill-opacity=".7" d="M19.337,0.027 C19.197,-0.043 19.083,0.027 19.083,0.184 L19.083,19.451 L27.489,23.669 C27.907,23.879 28.25,23.666 28.25,23.197 L28.25,4.65 C28.2504551,4.5575018 28.1985668,4.4726994 28.116,4.431 L19.337,0.026"/>
      <path fill-opacity=".7" d="M9.917,14.647 L18.977,0.144 C19.0648393,0.0104811 19.2377236,-0.0377557 19.382,0.031 L28.135,4.341 C28.1868435,4.3660656 28.2256021,4.4119701 28.2416233,4.4672815 C28.2576446,4.522593 28.2494208,4.5821061 28.219,4.631 L19.127,19.183 L9.917,14.647"/>
      <path fill-opacity=".7" d="M1.345,0.125 C0.773,-0.155 0.579,0.052 0.915,0.586 L9.695,14.579 L19.083,19.183 L9.755,4.316 C9.7151446,4.2523886 9.6583547,4.2011392 9.591,4.168 L1.345,0.125"/>
      <path d="M9.917,23.194 C9.917,23.666 9.574,23.88 9.155,23.669 L1.258,19.689 C0.978,19.548 0.75,19.175 0.75,18.86 L0.75,0.37 C0.75,0.056 0.978,-0.086 1.258,0.054 L9.804,4.361 C9.873,4.396 9.917,4.468 9.917,4.546 L9.917,23.194"/>
    </g>
  </g>
</svg>
